X:202
T:Kitty's Rambles
R:jig
M:6/8
L:1/8
K:Dmix
|:DFA c2A|dAd efg|fed cAG|FAF GFE|
DFA c2A|dAd efg|fed cAG|Ad^c d2 D:|
|:dfa dfa|dfa afd|ceg ceg|ceg gfe|
fef gfg|agf efg|fed cAG|Ad^c d2 d:|
|:afd d^cd|Adf agf|gec cBc|Gce gfe|
fef gfg|agf efg|fed cAG|Ad^c d2a:|
